packages/foundations/assets/icons/functional/images/maps/location_pin_16_filled.svg

<svg width="16" height="16" viewBox="0 0 16 16" fill="none" xmlns="http://www.w3.org/2000/svg">
<g clip-path="url(#clip0_2213_5045)">
<path fill-rule="evenodd" clip-rule="evenodd" d="M4 13.6C4 13.175 4.4 12.8 4.8 12.8H11.2C11.65 12.8 12 13.15 12 13.6C12 14.05 11.6 14.4 11.2 14.4H4.8C4.4 14.4 4 14.05 4 13.6ZM8 1.60001C10.225 1.60001 12 3.22501 12 5.32501C12 6.07501 11.75 6.85001 11.275 7.57501L8.675 11.625C8.5 11.875 8.25 12 8 12C7.75 12 7.5 11.875 7.325 11.625L4.725 7.57501C4.25 6.85001 4 6.07501 4 5.32501C4 3.22501 5.775 1.60001 8 1.60001ZM8 4.00001C7.125 4.00001 6.4 4.73071 6.4 5.6126C6.4 6.49449 7.125 7.20001 8 7.20001C8.875 7.20001 9.6 6.49449 9.6 5.6126C9.6 4.73071 8.875 4.00001 8 4.00001Z" fill="#1A1C1F"/>
</g>
<defs>
<clipPath id="clip0_2213_5045">
<rect width="16" height="16" fill="white"/>
</clipPath>
</defs>
</svg>

<svg xmlns="http://www.w3.org/2000/svg" width="16" height="16" fill="none"><g clip-path="url(#a)"><path fill="#1A1C1F" fill-rule="evenodd" d="M4 13.6c0-.425.4-.8.8-.8h6.4c.45 0 .8.35.8.8s-.4.8-.8.8H4.8c-.4 0-.8-.35-.8-.8m4-12c2.225 0 4 1.625 4 3.725 0 .75-.25 1.525-.725 2.25l-2.6 4.05A.83.83 0 0 1 8 12c-.25 0-.5-.125-.675-.375l-2.6-4.05C4.25 6.85 4 6.075 4 5.325 4 3.225 5.775 1.6 8 1.6M8 4c-.875 0-1.6.73-1.6 1.613C6.4 6.494 7.125 7.2 8 7.2s1.6-.706 1.6-1.587C9.6 4.73 8.875 4 8 4" clip-rule="evenodd"/></g><defs><clipPath id="a"><path fill="#fff" d="M0 0h16v16H0z"/></clipPath></defs></svg>
